!!!OTL: "Der Hirsch" SPRINGT EIN HIRSCH UEBERN BAUM
!!!ARE: Europa, Mitteleuropa, Deutschland
!!!SCT: Z1368
!!!YEM: Copyright 1995, estate of Helmut Schaffrath.
**kern
*ICvox
*Ivox
*M3/4
*k[b-]
*F:
{4f
8f
8cc
8a
8f
=1
4cc
8b-
8c
4e}
=2
{4e
8e
8dd
8cc
8e
=3
4f
8a
8cc
4ff}
=4
{8f
8f
8f
8cc
8a
8f
=5
8cc
8cc
8b-
8c
8e
8e}
=6
{4e
8e
8dd
8cc
8e
=7
4f
2r}
==
!!!AGN: Kinder - Lied
!!!ONB: ESAC (Essen Associative Code) Database: ZUCCAL
!!!AMT: simple triple
!!!AIN: vox
!!!EED: Helmut Schaffrath
!!!EEV: 1.0
*-
